X: 32208
T: Phil The Fluter's Ball
R: hornpipe
M: 4/4
K: Dmajor
DDDD dddc|BABc d2 FE|DDDD dddB|ABAF E2 EF|
DDDD dddc|BABc d2 ee|fded dcBA|BBcc d2||
f2 fd e2 ec|dedB AFDA|fffd eeec|dcBe A3 d|
f2 fd e3 c|dedB AFDF|ABAF dBAF|ABAF E2||
D2 DD d2 dc|BABc dd d2|DDDD dddB|ABAF EEFE|
D2 D2 dd d2|BABc d2 de|fded dcBA|BBcc d2||

